!!!SOCIAL_FUNCTION:	lightning songs
!!!PDT:	1932
!!!OTL: No_55_Song_Concerning_the_Ocean.krn
!!!REG: Southwest
!!!LANG: Non-Tone
!!!LING_GROUP: Yuman-Cochimi
**kern	**kern
*staff2	*staff1
=1-	=1-
*clefF4	*clefF4
*k[b-e-a-]	*k[b-e-a-]
*M2/4	*M2/4
2r	4F\
.	4F\
=2	=2
2r	4F\
.	4r
=3	=3
2r	4F\
.	[4E-\
=4	=4
2r	4E-\]
.	8C/L
.	8C/J
=5	=5
2r	2F\
=6	=6
2r	4F\
.	8E-\L
.	8E-\J
=7	=7
2r	4F\
.	4r
=8	=8
2r	2F\
=9	=9
2r	4F\
.	4r
=10	=10
2r	4F\
.	8E-\L
.	8E-\J
=11	=11
2r	2F\
=12	=12
2r	4F\
.	8r
.	8F\
=13	=13
2r	4F\
.	4E-\
=14	=14
2r	2F\
=15	=15
2r	4G\
.	4E-\
=16	=16
2r	4C/
.	8r
.	8C/
=17	=17
2r	2E-\
=18	=18
2r	4C/
.	8r
.	8C/
=19	=19
2r	4F\
.	8E-\L
.	8E-\J
=20	=20
2r	2F\
=21	=21
2r	4F\
.	4r
=22	=22
2r	4F\
.	8E-\L
.	8E-\J
=23	=23
2r	2F\
=24	=24
2r	4F\
.	8r
.	8E-\
=25	=25
2r	4C/
.	4C/
=26	=26
2r	2E-\
=27	=27
2r	4C/
.	8r
.	8F\
=28	=28
4GG/	4F\
8GG/	8E-\L
8r	8E-\J
=29	=29
4GG/	2F\
4GG/	.
=30	=30
4GG/	4F\
4r	8r
.	8F\
=31	=31
4GG/	4F\
4r	8E-\L
.	8E-\J
=32	=32
4GG/	2F\
4GG/	.
=33	=33
4GG/	4G\
4r	4E-\
=34	=34
4GG/	4E-\
4r	8r
.	8E-\
=35	=35
4GG/	4C/
4GG/	4C/
=36	=36
4GG/	4C/
4r	8r
.	8C/
=37	=37
4GG/	4F\
4GG/	8E-\L
.	8E-\J
=38	=38
4GG/	2F\
4GG/	.
=39	=39
4GG/	8F\
.	8r
4r	4r
=40	=40
4GG/	4F\
4GG/	4E-\
=41	=41
4GG/	4F\
4r	8E-\L
.	8E-\J
=42	=42
4GG/	2F\
4GG/	.
=43	=43
4GG/	4F\
4r	8r
.	8F\
=44	=44
4GG/	4F\
4GG/	4E-\
=45	=45
4GG/	4F\
4r	4E-\
=46	=46
4GG/	4F\
4r	4F\
=47	=47
4GG/	4F\
4r	8r
.	8F\
=48	=48
4GG/	4F\
4GG/	4E-\
=49	=49
4GG/	4F\
4r	8r
.	8F\
=50	=50
4GG/	2F\
4r	.
=51	=51
4GG/	4G\
4r	4E-\
=52	=52
4GG/	2E-\
4r	.
=53	=53
4GG/	4C/
4r	4r
=54	=54
4GG/	2F\
4r	.
=55	=55
4GG/	4G\
4GG/	4E-\
=56	=56
4GG/	2F\
4GG/	.
=57	=57
4GG/	4F\
4r	4r
=58	=58
4GG/	4F\
4GG/	8F\L
.	8G\J
=59	=59
4GG/	4F\
4r	8r
.	8F\
=60	=60
4GG/	2F\
4r	.
=61	=61
4GG/	4G\
4GG/	4E-\
=62	=62
4GG/	4E-\
4GG/	4E-\
=63	=63
4GG/	4C/
4r	4r
=64	=64
4GG/	2F\
4GG/	.
=65	=65
4GG/	4F\
4r	8r
.	8F\
=66	=66
4GG/	4F\
4GG/	4F\
=67	=67
4GG/	4F\
4r	8r
.	8F\
=68	=68
4GG/	2F\
4GG/	.
=69	=69
4GG/	4F\
4r	4r
=70	=70
4GG/	4F\
4GG/	8F\L
.	8G\J
=71	=71
4GG/	4F\
4r	4E-\
=72	=72
4GG/	4F\
4GG/	4F\
=73	=73
4GG/	4F\
4r	8r
.	8F\
=74	=74
4GG/	4F\
4GG/	8F\L
.	8G\J
=75	=75
4GG/	4F\
4r	8r
.	8F\
=76	=76
4GG/	4F\
4r	4F\
=77	=77
4GG/	4G\
4r	8E-\L
.	8E-\J
=78	=78
4GG/	2E-\
4r	.
=79	=79
4GG/	4F\
4r	8C/L
.	8C/J
=80	=80
4GG/	4C/
4r	8r
.	8E-\
=81	=81
4GG/	2F\
4GG/	.
=82	=82
4GG/	4F\
4r	4F\
=83	=83
2r	2r
=84	=84
4GG/	4B-\
4GG/	4B-\
=85	=85
4r	4G\
4r	4F\
=86	=86
4GG/	2F\
4r	.
=87	=87
4GG/	4G\
4r	4E-\
=88	=88
4GG/	4E-\
4r	4E-\
=89	=89
4GG/	4C/
4r	4r
=90	=90
4GG/	2F\
4GG/	.
=91	=91
4GG/	4F\
4r	4E-\
=92	=92
4GG/	4F\
4GG/	4F\
=93	=93
!!pagebreak:default
4GG/	4F\
4r	4r
==	==
*-	*-
